X: 790
T: Gel Ey Sâkî...
C: Rahmi Bey
O: Turkey
F: http://compmusic.upf.edu/node/140
N: mustear--sarki--aksak--gel_ey--rahmi_bey
N: makam= mustear
N: form= sarki
N: usul= aksak = 9/8
M: 9/8
L: 1/16
K: C _1/4B _1/4e ^f 
Q: 1/4=120
%%MIDI tuningsystem comma53
df^cd cdcB dcB^A B4 z2 | ^cd cBcd e=fed dcd4z2  | 
w:  ARANAĞME  |   | 
dgfe agfe =fedc dcB^A B2 | (3B2c2d2e2 dcdc B^AB4z2  | 
w:   |   | 
df^cd cdcB dcB^A B4 z2 | ^cd cBcd e=fed dcd4z2  | 
w:  ARANAĞME  |   | 
dgfe agfe =fedc dcB^A B2 | (3B2c2d2e2 dcdc B^AB4z2  | 
w:   |   | 
B2d2 ^c2dc cBB^A B4 z2 | c2 d2^c2 d2e2 =fed2 =c2B2  | 
w:  Gel  ey  *  *  *  sâ *  *  *  kî   |  şa ra *  *  bı  *  *  ta  | 
c2d2 c2B2 c2d2 e2d2 {=f}ed | d6 dedc B^AB4z2  | \
w:  ze len  |  dir   SAZ  | 
B2d2 ^c2dc cBB^A B4 z2 | 
w:  Gel  ey  *  *  *  sâ *  *  *  kî   | 
c2 d2^c2 d2e2 =fed2 =c2B2  | c2d2 c2B2 c2d2 e2d2 {=f}ed | \
w:  şa ra *  *  bı  *  *  ta  |  ze len  | 
d6 =e=fed d^cd4z2  | 
w:  dir   SAZ  | 
d2g2 =f2e2 agfe fedc B^A | B2 d2c2 dedc Bedc B^AB2  | 
w:  Ruh_ i  *  *  gül *  *  *  ren  |  gi  yâ *  *  *  ri  *  *  *  gâ  | 
d2d2 c2B2 ^A2B2 c2Bd cB | B6 e=fed d^cd4z2  | \
w:  ze len  |  dir   SAZ  | 
d2g2 =f2e2 agfe fedc B^A | 
w:  Ruh_ i  *  *  gül *  *  *  ren  | 
B2 d2c2 dedc Bedc B^AB2  | d2d2 c2B2 ^A2B2 c2Bd cB | 
w:  gi  yâ *  *  *  ri  *  *  *  gâ  |  ze len  | 
B6 aggf f^ef4z2  | ^e2f4fe d4 =e=fef ed | \
w:  dir   SAZ  |  Re bâb_ *  *  ı  sî  | 
d2 g2=f2 efed dedc B^AB2  | 
w:  ne mi  *  *  *  â *  *  *  vâ  | 
c2d2 c2B2 c2d2 _7/8e2df ed | d6 aggf f^ef4z2  | \
w:  ze len  |  dir   SAZ  | 
^e2f4fe d4 =e=fef ed | 
w:  Re bâb_ *  *  ı  sî  | 
d2 g2=f2 efed dedc B^AB2  | c2d2 c2B2 c2d2 _7/8e2df ed | 
w:  ne mi  *  *  *  â *  *  *  vâ  |  ze len  | 
d6 e=fed d^cd4z2  | d2g2 =f2e2 agfe fedc B^A | 
w:  dir   SAZ  |  Ruh_ i  *  *  gül *  *  *  ren  | 
B2 d2c2 dedc Bedc B^AB2  | d2d2 c2B2 ^A2B2 c2Bd cB | 
w:  gi  yâ *  *  *  ri  *  *  *  gâ  |  ze len  | 
B6 e=fed d^cd4z2  | d2g2 =f2e2 agfe fedc B^A | 
w:  dir   SAZ  |  Ruh_ i  *  *  gül *  *  *  ren  | 
B2 d2c2 dedc Bedc B^AB2  | d2d2 c2B2 ^A2B2 c2Bd cB | 
w:  gi  yâ *  *  *  ri  *  *  *  gâ  |  ze len  | 
B6 |
w:  dir    | 


